Sources/FrostedUI/Resources/Icons.xcassets/starHalf16.imageset/star-half-16.svg

<svg width="16" height="16" viewBox="0 0 16 16" fill="none" xmlns="http://www.w3.org/2000/svg" data-fui-icon="true">
  <path
    fill-rule="evenodd"
    clip-rule="evenodd"
    d="M15.1891 5.6113C15.0381 5.1453 14.6421 4.8163 14.1561 4.7533L10.6551 4.2953L9.13307 1.1283C8.92206 0.690298 8.48807 0.417297 8.00007 0.417297C7.51207 0.417297 7.07807 0.689298 6.86707 1.1283L5.34606 4.2953L1.84507 4.7533C1.35807 4.8163 0.962067 5.1453 0.811067 5.6113C0.661067 6.0763 0.790066 6.5733 1.14507 6.9083L3.70307 9.3193L3.06007 12.7653C2.97107 13.2443 3.16106 13.7193 3.55506 14.0063C3.77606 14.1683 4.03408 14.2493 4.29408 14.2493C4.49808 14.2493 4.70307 14.1993 4.89207 14.0973L8.00007 12.4223L11.1081 14.0973C11.5371 14.3283 12.0511 14.2943 12.4451 14.0063C12.8401 13.7193 13.0291 13.2433 12.9401 12.7643L12.2971 9.3193L14.8541 6.9093C15.2101 6.5743 15.3391 6.0753 15.1891 5.6113ZM11.1681 8.3223C10.8561 8.6173 10.7191 9.0453 10.7991 9.4623L11.3721 12.5353L8.59707 11.0393C8.41007 10.9383 8.20507 10.8883 8.00007 10.8883V2.2333L9.36007 5.0653C9.54507 5.4473 9.90607 5.7093 10.3281 5.7653L13.4481 6.1733L11.1681 8.3223Z"
    fill="currentColor"
  />
</svg>

<svg xmlns="http://www.w3.org/2000/svg" width="16" height="16" fill="none" data-fui-icon="true" viewBox="0 0 16 16"><path fill="currentColor" fill-rule="evenodd" d="M15.19 5.611a1.25 1.25 0 0 0-1.034-.858l-3.5-.458-1.523-3.167A1.25 1.25 0 0 0 8 .418c-.488 0-.922.271-1.133.71l-1.52 3.167-3.502.458a1.25 1.25 0 0 0-1.034.858c-.15.465-.02.962.334 1.297L3.703 9.32l-.643 3.446c-.089.48.101.954.495 1.241a1.25 1.25 0 0 0 1.337.091L8 12.422l3.108 1.675c.43.231.943.197 1.337-.09.395-.288.584-.764.495-1.243l-.643-3.445 2.557-2.41c.356-.335.485-.834.335-1.298m-4.022 2.711a1.24 1.24 0 0 0-.369 1.14l.573 3.073-2.775-1.496A1.25 1.25 0 0 0 8 10.89V2.232l1.36 2.832c.185.382.546.644.968.7l3.12.408z" clip-rule="evenodd"/></svg>
